icons/plexis/48/sage-notebook.svg

<svg viewBox="0 0 48 48" xmlns="http://www.w3.org/2000/svg" xmlns:xlink="http://www.w3.org/1999/xlink">
  <linearGradient id="a" gradientTransform="matrix(0 -1 1 0 -.0000015 47.999998)" gradientUnits="userSpaceOnUse" x1="1" x2="47">
    <stop offset="0" stop-color="#6767ed"/>
    <stop offset="1" stop-color="#7979ef"/>
  </linearGradient>
  <path d="m47 24c0 22.703-.297 23-23 23-22.703 0-23-.297-23-23 0-22.703.297-23 23-23 22.703 0 23 .297 23 23z" fill="url(#a)"/>
  <path d="m25 11a2 2 0 0 0-2 2 2 2 0 0 0  0 .02l-8.02 4.738a2 2 0 0 0-.98-.258 2 2 0 0 0-2 2 2 2 0 0 0  1 1.73v7.541a2 2 0 0 0-1 1.729 2 2 0 0 0  2 2 2 2 0 0 0  .98-.26l8.02 4.74a2 2 0 0 0 0 .02 2 2 0 0 0  2 2 2 2 0 0 0  2-2 2 2 0 0 0  0-.02l8.02-4.738a2 2 0 0 0  .98.258 2 2 0 0 0  2-2 2 2 0 0 0-1-1.73v-7.541a2 2 0 0 0 1-1.729 2 2 0 0 0-2-2 2 2 0 0 0-.98.26l-8.02-4.74a2 2 0 0 0 0-.02 2 2 0 0 0-2-2m1 3.752l7.91 4.674-7.811 3.906a2 2 0 0 0-.099-.062zm-2 .002v8.518a2 2 0 0 0-.102.061l-7.808-3.907zm-8.9 6.416l7.666 3.83-7.666 3.832a2 2 0 0 0-.1-.062v-7.541a2 2 0 0 0  .102-.061zm19.797 0a2 2 0 0 0  .103.06v7.541a2 2 0 0 0-1 1.729 2 2 0 0 0  0 .02l-8 4.727v-8.518a2 2 0 0 0  .994-1.607l7.904-3.953zm-10.998 5.5a2 2 0 0 0  .101.06v8.518l-7.91-4.674 7.811-3.906z" fill-rule="evenodd" opacity=".1"/>
  <path d="m24 10a2 2 0 0 0-2 2 2 2 0 0 0  0 .02l-8.018 4.738a2 2 0 0 0-.982-.258 2 2 0 0 0-2 2 2 2 0 0 0  1 1.73v7.541a2 2 0 0 0-1 1.729 2 2 0 0 0  2 2 2 2 0 0 0  .98-.26l8.02 4.74a2 2 0 0 0 0 .02 2 2 0 0 0  2 2 2 2 0 0 0  2-2 2 2 0 0 0  0-.02l8.02-4.74a2 2 0 0 0  .98.26 2 2 0 0 0  2-2 2 2 0 0 0-1-1.73v-7.541a2 2 0 0 0 1-1.729 2 2 0 0 0-2-2 2 2 0 0 0-.98.26l-8.02-4.74a2 2 0 0 0 0-.02 2 2 0 0 0-2-2zm1 3.752l7.91 4.674-7.81 3.906a2 2 0 0 0-.1-.062zm-2 .002v8.517a2 2 0 0 0-.102.061l-7.808-3.906zm-8.9 6.416l7.666 3.83-7.666 3.832a2 2 0 0 0-.1-.062v-7.541a2 2 0 0 0  .1-.059zm19.798 0a2 2 0 0 0  .102.06v7.541a2 2 0 0 0-1 1.729 2 2 0 0 0  0 .02l-8 4.73v-8.521a2 2 0 0 0  .994-1.609zm-10.998 5.498a2 2 0 0 0  .1.062v8.52l-7.91-4.676z" fill="#f3f3f9" fill-rule="evenodd"/>
</svg>

<svg xmlns="http://www.w3.org/2000/svg" viewBox="0 0 48 48">
 <defs>
  <linearGradient id="linearGradient3764" x1="1" x2="47" gradientUnits="userSpaceOnUse" gradientTransform="matrix(0,-1,1,0,-1.5e-6,47.999998)">
   <stop style="stop-color:#6767ed;stop-opacity:1"/>
   <stop offset="1" style="stop-color:#7979ef;stop-opacity:1"/>
  </linearGradient>
 </defs>
 <g>
  
  
  
 </g>
 <g>
  <path d="m 47,24 C 47,46.703 46.703,47 24,47 1.297,47 1,46.703 1,24 1,1.297 1.297,1 24,1 46.703,1 47,1.297 47,24 z" style="fill:url(#linearGradient3764);fill-opacity:1"/>
 </g>
 <g>
  
 </g>
 <path d="m 25 11 a 2 2 0 0 0 -2 2 2 2 0 0 0 0 0.02 l -8.02 4.738 A 2 2 0 0 0 14 17.5 a 2 2 0 0 0 -2 2 2 2 0 0 0 1 1.73 l 0 7.541 A 2 2 0 0 0 12 30.5 a 2 2 0 0 0 2 2 2 2 0 0 0 0.98 -0.26 L 23 36.98 A 2 2 0 0 0 23 37 a 2 2 0 0 0 2 2 2 2 0 0 0 2 -2 2 2 0 0 0 0 -0.02 l 8.02 -4.738 A 2 2 0 0 0 36 32.5 a 2 2 0 0 0 2 -2 2 2 0 0 0 -1 -1.73 l 0 -7.541 A 2 2 0 0 0 38 19.5 a 2 2 0 0 0 -2 -2 2 2 0 0 0 -0.98 0.26 L 27 13.02 A 2 2 0 0 0 27 13 2 2 0 0 0 25 11 m 1 3.752 7.91 4.674 -7.811 3.906 A 2 2 0 0 0 26 23.27 l 0 -8.518 z m -2 0.002 0 8.518 a 2 2 0 0 0 -0.102 0.061 L 16.09 19.426 24 14.754 M 15.1 21.17 22.766 25 15.1 28.832 A 2 2 0 0 0 15 28.77 l 0 -7.541 a 2 2 0 0 0 0.102 -0.061 z m 19.797 0 A 2 2 0 0 0 35 21.23 l 0 7.541 A 2 2 0 0 0 34 30.5 a 2 2 0 0 0 0 0.02 l -8 4.727 0 -8.518 a 2 2 0 0 0 0.994 -1.607 l 7.904 -3.953 z m -10.998 5.5 A 2 2 0 0 0 24 26.73 l 0 8.518 -7.91 -4.674 7.811 -3.906 z" mix-blend-mode="normal" isolation="auto" white-space="normal" solid-opacity="1" solid-color="#000000" style="visibility:visible;shape-rendering:auto;color-interpolation-filters:linearRGB;fill:#000;opacity:0.1;image-rendering:auto;fill-opacity:1;stroke:none;display:inline;color:#000;fill-rule:evenodd;color-rendering:auto;color-interpolation:sRGB"/>
 <path d="M 24 10 A 2 2 0 0 0 22 12 A 2 2 0 0 0 22 12.02 L 13.982 16.758 A 2 2 0 0 0 13 16.5 A 2 2 0 0 0 11 18.5 A 2 2 0 0 0 12 20.23 L 12 27.771 A 2 2 0 0 0 11 29.5 A 2 2 0 0 0 13 31.5 A 2 2 0 0 0 13.98 31.24 L 22 35.98 A 2 2 0 0 0 22 36 A 2 2 0 0 0 24 38 A 2 2 0 0 0 26 36 A 2 2 0 0 0 26 35.98 L 34.02 31.24 A 2 2 0 0 0 35 31.5 A 2 2 0 0 0 37 29.5 A 2 2 0 0 0 36 27.77 L 36 20.229 A 2 2 0 0 0 37 18.5 A 2 2 0 0 0 35 16.5 A 2 2 0 0 0 34.02 16.76 L 26 12.02 A 2 2 0 0 0 26 12 A 2 2 0 0 0 24 10 z M 25 13.752 L 32.91 18.426 L 25.1 22.332 A 2 2 0 0 0 25 22.27 L 25 13.752 z M 23 13.754 L 23 22.271 A 2 2 0 0 0 22.898 22.332 L 15.09 18.426 L 23 13.754 z M 14.1 20.17 L 21.766 24 L 14.1 27.832 A 2 2 0 0 0 14 27.77 L 14 20.229 A 2 2 0 0 0 14.1 20.17 z M 33.898 20.17 A 2 2 0 0 0 34 20.23 L 34 27.771 A 2 2 0 0 0 33 29.5 A 2 2 0 0 0 33 29.52 L 25 34.25 L 25 25.729 A 2 2 0 0 0 25.994 24.12 L 33.898 20.17 z M 22.9 25.668 A 2 2 0 0 0 23 25.73 L 23 34.25 L 15.09 29.574 L 22.9 25.668 z" mix-blend-mode="normal" isolation="auto" white-space="normal" solid-opacity="1" solid-color="#000000" style="visibility:visible;shape-rendering:auto;color-interpolation-filters:linearRGB;fill:#f3f3f9;opacity:1;image-rendering:auto;fill-opacity:1;stroke:none;display:inline;color:#000;fill-rule:evenodd;color-rendering:auto;color-interpolation:sRGB"/>
</svg>
